X:1
T:# / 9 mahler: des antonius von padua fischpredigt (wunderhorn)
%%score 1 { ( 2 3 ) | ( 4 5 ) }
L:1/8
Q:1/8=138
M:3/8
K:C
V:1 treble nm="Midi_71"
V:2 bass nm="Midi_1"
V:3 bass 
V:4 bass 
V:5 bass 
V:1
 z | z3 | z3 | z3 | z3 | z3 | z3 | z3 ||[K:F][M:3/8][K:treble-8] z z A, | DFE | DA,A, | %11
w: ||||||||An-|to- nius zur|Pre- digt die|
w: |||||||||||
 D (D/E/) (F/G/) | ADd | c (c/d/) (c/d/) | B B/-c/ B/c/ | AAE | AAE | ^cde | edd | ^cde | gff | %21
w: Kir- che * find't *|le- dig! Er|geht zu * den *|Flüs- sen * und *|pre- digt den|Fi- schen! Sie|schlag'n mit den|Schwän- zen im|Son- nen- schein|glän- zen, im|
w: ||||||||||
 A^cE | A^cE | A^cE | G=BD | !courtesy!=FA z | _EG z | z3 | z z A, | DFE | DA,A, | %31
w: Son- nen- schein,|Son- nen- schein|glän- zen, sie|glän- zen, sie|glän- zen,|glän- zen!||Die|||
w: ||||||||Karp- fen mit|Ro- gen seind|
 D (D/E/) (F/G/) | ADd | c (c/d/) (B/c/) | (A/c/)fd | c (c/d/) (B/c/) | (A/c/)f z | z3 | z3 | z3 | %40
w: ||||Zu- hör'n's * be- *|flis- * sen.||||
w: all hier- * her- *|zo- gen; hab'n|d'Mäu- ler * auf- *|ris- * sen, sich||||||
 z3 | z3 | z z (A/B/) | (A/G/)G (G/A/) | (G/^F/)F z | z3 | z z (A/B/) | (A/G/)G (G/A/) | %48
w: ||Kein *|Pre- * digt nie- *|ma- * len||den *|Fi- * schen so *|
w: ||||||||
 (G/^F/)"^(mit Humor)"F z | z3 | z3 | z3 | z3 | z3 | z3 | z3 | z3 | z3 | z3 | z3 | z3 | z3 | z3 | %63
w: g'fal- * len!|||||||||||||||
w: |||||||||||||||
 z z A, | DFE | DA,A, | D (D/E/) (F/G/) | AF (A/=B/) | cAc | !courtesy!_BGB | AFA | GE!f!d | c>dB | %73
w: Spitz-|go- sche- te|Hech- te, die|im- mer- * zu *|fech- ten, sind *|ei- lends her-|schwom- men, zu|hö- ren den|From- men! Auch|je- ne Phan-|
w: ||||||||||
 AFf | e>fd | cA_e | dG_e | dG (d/!courtesy!=e/) | f!courtesy!=ed | (^c/=B/)A z | z3 | %81
w: ta- sten, die|im- mer- zu|fa- sten: die|Stock- fisch ich|mei- ne, zur *|Pre- digt er-|schei- * nen!||
w: ||||||||
 z z (!^!A/B/) | (A/G/)G (G/A/) | (G/^F/)F z | z3 | z z (c/d/) | (c/B/)B (B/c/) | %87
w: Kein *|Pre- * digt nie- *|ma- * len||den *|Stock * fisch so *|
w: ||||||
 (B/A/)"^(mit Parodie)"A z | z3 | z3 | z3 | z3 | z3 | z3 | z3 | z3 | z3 | z3 |!>(! z3!>)! | %99
w: g'fal- * len!||||||||||||
w: ||||||||||||
[K:G] z3 | z3 | z3 | z3 | z3 | z3 | z3 | z3 | z3 | z z d | B>cA | GDe | d>ec | BG (E/F/) | GGA | %114
w: |||||||||Gut|Aa- le und|Hau- sen, die|Vor- neh- me|schmau- sen, die *|selbst sich be-|
w: |||||||||||||||
 B>cd | BBA | (G/F/)EE | c>dB | AEe | d>e!courtesy!=c | BF"^(cantabile)"G/A/ | Bd (B/A/) | G2 F | %123
w: que- men, die|Pre- digt ver-|neh- * men! Auch|Kreb- se, Schild-|kro- ten, sonst|lang- sa- me|Bo- ten, stei- gen|ei- lig vom *|Grund, zu|
w: |||||||||
 (E/F/)G(F/E/) | D2 z | z3 | z z (G/^G/) | A (A/B/) (c/e/) | dd z | z3 | z z (e/d/) | %131
w: hö- * ren die- sen|Mund!||Kein *|Pre- digt- * nie- *|ma- len||den *|
w: ||||||||
 c (c/B/) (A/^G/) | AA!f!d |[K:F] c>dB | AFf | e>fd | cA_e | dG_e | dGc/_d/ | c=BA | (^G/^F/)E z | %141
w: Kreb- sen * so *|g'fal- len! Fisch'|gros- se, Fisch'|klei- ne! Vor-|nehm' und ge-|mei- ne, er-|he- ben die|Köp- fe wie ver-|ständ'- ge Ge-|Schöp * fe!|
w: ||||||||||
 z3 | z z (^c/d/) | (^c/=B/)B (B/c/) | (=B/A/)A z | z3 | z z (e/f/) | (e/d/)d (d/e/) | (d/^c/)c z | %149
w: |Auf *|Got- * tes Be- *|geh- * ren||die *|Pre- * digt an- *|hö- * ren!|
w: ||||||||
 z3 |"^(mit Humor)" z3 | z3 | z3 | z3 | z3 | z3 | z3 | z3 | z3 || z3 | z z A, | DFE | DA,A, | %163
w: |||||||||||Die|Pre- digt ge-|en- det, ein|
w: ||||||||||||||
 D (D/E/) (F/G/) | AD z | z3 | z3 | z3 | z z [A,D] | D (D/_E/)(F/G/) | ADF | B (B/c/) (d/_e/) | %172
w: je- der * sich *|wen- det!||||Die|Hech- te * blei- ben|Die- be, die|Aa- le * viel *|
w: |||||||||
 fB (d/c/) | BG d/c/ | BG!f! (!courtesy!=e/d/) | c (c/A/) (G/B/) | AF!f! (A/G/) | FFE | %178
w: lie- ben; die *|Pre- digt hat *|g'fal- len, sie *|blei- ben * wie *|Al- len! Die *|Krebs' geh'n zu-|
w: ||||||
 DD (_e/d/) | ccB | AA (d/c/) | Bg (d/c/) | Bg (d/c/) | Bd (c/B/) | Ac (B/A/) | GB z | %186
w: rük- ke, die *|Stock- fisch' bleib'n|dik- ke, die *|Karp- fen viel *|fres- sen, die *|Pre- digt ver- *|ges- sen, ver- *|ges- sen!|
w: ||||||||
 z z!ff! (!courtesy!=e/f/) | g^c (c/d/) | eG (G/A/) | B!courtesy!=E (E/^F/) | G^CB | ADB | ADB | %193
w: Die *|Pre- digt hat *|g'fal- len, sie *|blei- ben wie *|al- len! Die|Pre- digt hat|g'fal- len, hat|
w: |||||||
 AD z | z3 | z3 | z3 | !fermata!z3 |] %198
w: g'fal- len!|||||
w: |||||
V:2
[K:F]"^Behäbig. Mit Humor.""^(""^Am Anfang" z | z3 | z3 | z .F,E, | z x{/B,} A, | %5
{/B,} !tenuto!A,2"^Des Antonius von Padua Fischpredigt""^(""^aus:""^Des Knaben Wunderhorn)"{/B,} A, | %6
{/B,} !tenuto!A,2 (A,/B,/ |"^Gustav Mahler""^1860 - 1911" A,/B,/A,/B,/A,/B,/) || %8
 (A,/B,/A,/B,/[A,D]/B,/ |[K:treble] [A,D]/E/F/G/A/B/ | A/ F/ D/ E/ E/ G/ |{/B} A/^G/A/^c/d/e/ | %12
 !^!f/a/g/f/e/)d/ | (!^!e/g/f/e/d/c/ | !^!d/f/e/d/c/B/ | [Ec]/d/[Ec]/d/[E=B]/c/ | %16
 [EA]/^G/A/)(E/A/=B/ |!<(! [A^c]/[^G=B]/[Ac]/[Bd]/[ce]/[df]/)!<)! | %18
!>(! (!^![e!courtesy!=g]/[fa]/[eg]/[df]/[^cf]/.[!courtesy!_Bd]/)!>)! | %19
 ([^G^B]/[A^c]/[GB]/[Ac]/[=Bd]/!>(![ce]/!>)! | !^![df]/[^ce]/[!courtesy!_Bd]/[Ac]/[^Gd]/([Ac]/) | %21
 e/^d/e/[!courtesy!_B=d]/e/[A^c]/ | e/^d/e/[!courtesy!_B=d]/e/) x/ |"^dim." ([A^c]/e/d/c/=B/A/) | %24
 (=B/d/^c/B/A/G/) | (A/!courtesy!=c/=B/A/G/F/) | (G/!courtesy!_B/A/G/!courtesy!=F/_E/) | %27
!pp! (D/^C/D/F/!courtesy!=E/F/ | D/^C/D/F/[DE]/F/) | (D/^C/D/E/F/G/ | !^!A/ F/ D/ E/ F/ G/ | %31
{B} A/^G/A/^c/d/e/ | !^!f/a/g/f/e/d/ | c/d/c/d/B/c/ | !^!A/c/f/a/g/)f/ | (c/d/c/d/B/c/ | %36
 !^!A/ c/ f/ c'/ b/ a/) |{ga} (g/ ^f/ g/ b/ a/ g/ |{fg} !^!f/!courtesy!=e/f/a/g/f/) | %39
 (_e/!courtesy!=f/e/d/!courtesy!=c/B/ | A/^F/D/)!p! (A/d/!courtesy!=e/) | ([A^f]/e/d/A/d/e/ | %42
 [A^f]>)!pp!(Af/[Bg]/ | ([A^f]/[Ge]/))([Ge]/[^F^d]/)([Ge]/[Af]/) | ([Ge]/[^Fd]/).[Fd]/(A/!pp!d/e/ | %45
 ^f/e/d/A/d/e/ | ^f>)(Af/b/) | ([^fa]/[_eg]/)([eg]/[df]/)([eg]/[^ca]/) | %48
 ([_eg]/[d^f]/)[df] (d/^c/ | B/^c/!courtesy!=f/b/^c'/d'/ | !^!^c'/d'/c'/!courtesy!_b/^f/c'/ | %51
 !^!!courtesy!=c'/)^c'/=c'/!courtesy!_b/g/c'/ | ((!^!!courtesy!_b/=b/_b/a/^f/b/)) | %53
!mf! (!^![^fa]/[gb]/.[fa]/[_eg]/[df]/[eg]/) | (!^![^fa]/[gb]/.[fa]/[_eg]/!^![df]/[eg]/) | %55
!>(! (!^![^fa]/[gb]/.[fa]/[!courtesy!=eg]/[^df]/[=d=f]/!>)! | %56
!p!!>(! [^ce]/[^B^d]/[=B=d]/[^A!courtesy!^c]/[=A=c]/[!courtesy!=GB]/!>)! | %57
!p! !^![!courtesy!=G!courtesy!_B]/!>(!d/[A^c]/[_A=c]/[G=B]/[_G_B]/)!>)! | %58
!>(! (!^![!courtesy!=FA]/c/[!courtesy!=G=B]/[^F^A]/[=F=A]/[E^G]/) | %59
 (!^![_E!courtesy!=G]/!courtesy!_B/A/G/^F/!courtesy!_E/)!>)! | %60
!pp! (D/A/^G/=G/!courtesy!=F/!courtesy!=E/ | D/ A/ ^G/ =G/ !courtesy!=F/ !courtesy!=E/) | %62
{/B} !^!A3 |{/B} !^!A3 | (D/^C/D/E/F/G/ | A/ F/ D/ E/ F/ G/ |{/B} A/^G/A/^c/d/)e/ | %67
 f/!courtesy!=c/A/c/f/g/ | a/e/a/c'/!courtesy!_b/a/ | g/d/g/b/a/g/ | f/!courtesy!=e/f/a/g/f/ | %71
 x2!f! !^!d | c>dB | A z (!^!f | [ce]/G/[ce]/[df]/[!courtesy!_Bd]/e/ | %75
 [Ac]/=B/)A/!p!(c/!<(!d/_e/)!<)! |!>(! (d/B/G/)!>)!!<(!(c/d/_e/!<)! | %77
!>(! !^!d/B/G/)!>)!!<(!(^c/d/!courtesy!=e/!<)! |!>(! !^!f/e/d/f/e/d/ | ^c/=B/A)!>)!!mf! (d/e/ | %80
 ^f/e/(d/)A/d/e/ | [A^f]>)!pp!Af/[!courtesy!_Bg]/ | (!^![A^f]/[Ge]/)([Ge]/[^F^d]/)([Ge]/[Af]/) | %83
 (!^![Ge]/[^F!courtesy!=d]/).[Fd]/(A/d/e/ | ^f/e/d/A/f/g/ | a>)!pp!A[ca]/[db]/ | %86
 !^![ca]/[Bg]/([Bg]/[A^f]/)([Bg]/[!courtesy!=ca]/) | (!^![Bg]/[A^f]/).[Af]!p! (d/^c/) | %88
 (B/^c/!courtesy!=f/b/^c'/d'/ | ^c'/d'/c'/!courtesy!_b/^f/c'/) | %90
 (!courtesy!=c'/_d'/c'/!courtesy!_b/g/c'/) | (!^!!courtesy!_b/_c'/b/a/^f/b/) | %92
 (!^![^fa]/[g!courtesy!_b]/[fa]/[_eg]/[df]/[eg]/) | %93
 (!^![^fa]/[g!courtesy!_b]/[fa]/!<(![_eg]/[df]/[eg]/)!<)! | %94
!ff! ([^fa]/[g!courtesy!_b]/[=fa]/[!courtesy!=e^g]/[_e=g]/[d^f]/ | %95
 !^![_d!courtesy!=f]/[!courtesy!=c!courtesy!=e]/[B^d]/[!courtesy!_B=d]/[A^c]/[_A=c]/ | %96
!>(! [G=B]/[^F^A]/[=F=A]/[E^G]/[_E=G]/[D^F]/!>)! | %97
 [^C^E]/!>(![=C=E]/[=B,^D]/[_B,=D]/[A,^C]/[_A,=C]/)!>)! | x2 x |[K:G]!pp! z3 | z3 | z3 | z3 | %103
 x2 x |{/A} G/F/G/D/B/A/ | G/A/G/E/D/C/ | x2 x | x2 x | x2 x | z3 | z3 | %111
{/D}[I:staff +1] C/B,/C/D/[I:staff -1][CE]/F/ | [B,G]/F/G/D/B/A/ | G/A/G/E/D/C/ | z3 | z3 | z3 | %117
 z3 | z3 | (x2 x) | F3/2 (D/ E/ F/ |{A} G/F/G/A/B/c/) | d3/2 G/ A/ B/ |{/d} (c/B/c/d/e/f/) | %124
 (g/f/g/d/b/a/ | g/a/g/f/e/^d/ | e/f/e/!courtesy!=d/c/B/ | c/B/A/B/c/e/ | d/e/f/d/b/a/) | %129
 (g/a/g/f/e/^d/ | e/f/e/!courtesy!=d/c/B/ |!<(! c/d/c/B/A/^G/ | x2!f! d)!<)! |[K:F] c>dB | ADf | %135
 ([ce]/G/[ce]/f/[Bd]/e/ | [Ac]/=B/A/)(c/!p!d/_e/ | (!^!d/)!courtesy!_B/G/ (c/)d/_e/ | %138
 !^!d/!courtesy!_B/G/)(B/c/_d/ | c/!courtesy!_B/A/c/=B/A/ | ^G/^F/E/)!mf!(E/A/=B/) | %141
 (^c/=B/A/E/A/B/ | ^c>)(E!pp!c/[!courtesy!=Fd]/ | !^![E^c]/.[D=B]/)([DB]/[^C^A]/)([DB]/[Ec]/) | %144
 (!^![D=B]/.[^CA]/).[CA]/!mf!(E/^c/d/ | e/d/^c/E/c/d/ | e>)!pp!(E[^ce]/[d!courtesy!=f]/) | %147
 (!^![^ce]/[!courtesy!_Bd]/)([Bd]/[Ac]/)([Bd]/[^Ge]/) | %148
 (!^![!courtesy!_Bd]/.[A^c]/)[Ac]!mf! (A/^G/ | !courtesy!=F/^G/!courtesy!=c/f/^g/a/ | %150
 !^!^g/a/g/e/^c/g/) | (!^!!courtesy!=g/_a/g/!courtesy!=f/d/g/) | %152
 (!^!!courtesy!=f/!courtesy!=g/f/e/^c/f/) | %153
!f! (!^![^ce]/[d!courtesy!=f]/[ce]/[!courtesy!_Bd]/[Ac]/[Bd]/) | %154
 (!^![^ce]/[d!courtesy!=f]/[ce]/[!courtesy!_Bd]/[Ac]/[Bd]/) | %155
 !^![^ce]/[d!courtesy!=f]/[ce]/[Bd]/[A!courtesy!^c]/[_A=c]/ | %156
!>(! !^![G=B]/[^F^A]/[=F_A]/[E^G]/[_E=G]/[D^F]/ | %157
 [_D!courtesy!=F]/[C!courtesy!=E]/[=B,^D]/[_B,=D]/[A,^C]/[_A,=C]/!>)! | z3 || z3 | z3 | %161
{E} (D/^C/D/E/F/G/ | A/ F/ D/ E/ F/ G/ |{/B} A/^G/A/^c/d/e/ | d/A/)F/(^c/d/e/) | %165
 (!^!f/!courtesy!=c/A/)(^G/A/!courtesy!_B/ | !^!c/A/F/)(!^!_E/D/C/ | z3 | x x/ (G/)F/_E/ | %169
 D/C/D/_E/F/G/ | A/F/D/) (F/G/A/) |({c} B/(A/B/)c/d/_e/ | f/d/)B/(f/g/_a/ | !^!g/_e/B/f/g/_a/ | %174
 g/_e/B/)(g/!courtesy!=a/b/ | !^!a/c'/a/f/!courtesy!=e/g/ | f/c/A/) x x/ | %177
!<(!({/E} D/^C/D/E/F/G/!<)! |!>(! A/ F/) D/!>)! (!courtesy!=E/ ^F/ G/ | %179
!<(!{/B} A/(^G/A/)B/c/d/!<)! |!>(! !^!_e/c/)A/!>)!!pp!e/d/c/ | B/g/d/(_e/d/c/) | (B/g/d/)(_e/d/c/ | %183
 B/g/d/^c/=c/!courtesy!_B/ | A/!courtesy!=f/.c/=B/_B/A/ |"^cresc." G/!<(!_e/A/B/g/^c/ | %186
 d/b/^f/g/)!<)!!f! [g'b']/[!courtesy!=f'a']/ | (g'/e'/^c'/)(d'/[c'e']/[d'f']/ | %188
 e'/^c'/g/)[^fa]/[gb]/[a=c']/ |!>(! !^![gb]/[^fa]/[=f_a]/[eg]/[^d^f]/[=d=f]/ | %190
 [^ce]/[_c_e]/[Bd]/!>)!!mf!(^c/!>(!g/b/ | a/d'/)d/!>)!!p!(^c/!>(!g/b/)!>)! | %192
!>(! (a/d'/d/)!>)!!pp!(^c/!>(!g/b/ | a/^f/!>)!d/a/^c/a/ |!>(! !courtesy!=c/^f/=B/f/_B/f/ | %195
 A/d/^G/d/=G/d/ | ^F/A/=F/A/A,/D/)!>)! |!ppp! !fermata!z3 |] %198
V:3
[K:F] x | x2 x | x2 x | x2 x | z .F,E, | x2 x | x2 x | x2 x || x3 |[K:treble] x3 | x3 | x3 | x3 | %13
 x3 | x3 | x3 | x3 | x3 | x3 | x3 | x3 | x3 | x3 | x3 | x3 | x3 | x3 | x3 | x3 | x3 | x3 | x3 | %32
 x3 | x3 | x3 | x3 | x3 | x3 | x3 | x3 | x3 | x3 | x3 | x3 | x3 | x3 | x3 | x3 | x3 | x3 | x3 | %51
 x3 | x3 | x3 | x3 | x3 | x3 | x3 | x2 x | x2 x | x2 x | x2 x | (D^G/=G/F/E/ | D^G/=G/F/E/) | x3 | %65
 x3 | x3 | x3 | x3 | x3 | x2 x | e/d/c/!courtesy!_B/A/G/ | F/E/D/E/F/G/ | A/F/D/F/A/B/ | x2 x | %75
 x2 x | x3 | x3 | x3 | x3 | x3 | x3 | x3 | x3 | x3 | x3 | x3 | x3 | x3 | x3 | x3 | x3 | x3 | x3 | %94
 x3 | x3 | x3 | x3 | x3 |[K:G] x3 | x3 | x3 | x3 |{/D}[I:staff +1] C/B,/C/[I:staff -1]D/E/F/ | %104
 x2 x | x2 x | x2 x | x2 x | x2 x | x3 | x3 | x3 | x3 | x3 | x3 | x3 | x3 | x3 | x3 | x3 | x3 | %121
 x3 | x3 | x3 | x3 | x3 | x3 | x3 | x3 | x2 x | x2 x | x2 x | A/_B/A/!courtesy!=G/(=F/(E/) | %133
[K:F] F/E/D/E/F/G/ | A/F/D/F/A/B/) | x3 | x3 | x3 | x3 | x3 | x3 | x3 | x3 | x3 | x3 | x3 | x3 | %147
 x3 | x3 | x3 | x3 | x3 | x3 | x3 | x3 | x3 | x3 | x3 | x3 || x3 | x3 | x3 | x3 | x3 | x3 | x3 | %166
 x3 | x3 | x3 | x3 | x3 | x3 | x3 | x3 | x3 | x3 | x3 | x3 | x3 | x3 | x3 | x3 | x3 | x3 | x3 | %185
 x3 | x3 | x3 | x3 | x3 | x3 | x3 | x3 | x3 | x3 | x3 | x3 | x3 |] %198
V:4
[K:F]!pp! .A,,, | .D,, z .A,,, | .D,, z .[A,,,A,,] | [D,,D,] z .[A,,,A,,] | [D,,D,] z .[A,,,A,,] | %5
 .[D,,D,].F,.[A,,E,] | .D,.F,.[A,,E,] | .D,.F,.[A,,E,] || .D,.F,.[A,,E,] | .D,.F,.[A,,E,] | %10
 .D,.F,.[A,,E,] | .D,.F,.[A,,E,] |"^sempre stacc." D,F,A, | E,G,C | F,B,D | ^F,F,G, | A,A,, z | %17
 A,,E,^C |"^i" .^G,,.!courtesy!=F,.D | .A,,.E,.^C | .B,,.F,.D |"^stacc." [A,,A,]E[E,,E,] | %22
 [A,,A,]E[E,,E,] | [A,,A,]^CE | [G,,G,]=B,D | [!courtesy!=F,,!courtesy!=F,]A,C | %26
 [_E,,_E,]G,!courtesy!_B, | [D,,D,]F,[A,,A,] | D,F,[A,,A,] | D,F,[A,,E,] | D,F,[A,,E,] | %31
 D,F,[A,,E,] | [D,,D,]F,A, | [E,,E,]G,C | [F,,F,]A,C | [E,,E,]G,C | [F,,F,]A,C | [G,,G,]B,_E | %38
 [B,,B,]DF | [C_E_A] z .[^C,G,!courtesy!_B,] | [D,^F,A,] z A,- | .D,.A,.A,, | .D,.A,.A,, | %43
 .^C,.B,.A,, | .D,.A,.A,, | .D,.A,.A,, |"^stacc." D,A,D, | _E,[B,G]E, | D,[A,^F] z | D,B,G | %50
 D,A,^F | ^C,B,G | D,A,^F | (_E,.[!courtesy!_B,^CG])!^![_A,=C^F] | %54
 (_E,[!courtesy!_B,^CG])!^![_A,=C^F] | (_E,.[!courtesy!_B,^CG]).[=E,^G,!courtesy!=D] | %56
 .[A,,E,^C] z z | .[G,,G,].!courtesy!_B,.D | .[!courtesy!=F,,!courtesy!=F,].A,.C | %59
 .[_E,,_E,].G,.B, |"^stacc." [D,,D,]!courtesy!=F,[A,,A,] | D,F,[A,,A,] | D,F,[A,,A,] | %63
 D,F,[A,,A,] | D,F,[A,,E,] | D,F,[A,,E,] | D,F,[A,,E,] | [F,,F,]A,C | [A,,A,]CE | [B,,B,]DG | %70
 [=B,,=B,]DG | CC,[D,D] | [D,D]3 | DD,D | D,D[E,E] | A,,A,D, | [G,,G,]DD, | [G,,G,]D[F,,F,] | %78
 [E,,E,][^F,,^F,][^G,,^G,] | [A,,A,] .A,/.!courtesy!=G,/.^F,/.E,/ | .D,A,/G,/[A,,^F,]/G,/ | %81
 [D,A,]2 A,, | ^C,.B,.[A,,A,] | .D,.B,!mf!.[A,,A,] | .D,^F,/E,/[A,,D,]/E,/ | [D,^F,]2 [D,D] | %86
 _E,[^CG][E,C] | [D,D][A,^F] z | .D,.B,.G | .D,.A,.^F | .^C,.!courtesy!_B,.G | .D,.A,.^F | %92
 (_E,.[!courtesy!_B,^CG])!^![_A,=C^F] | (_E,.[!courtesy!_B,^CG]).[_A,=C^F] | %94
 .[_E,!courtesy!_B,^CG] z z |!ff! !^![_A,,_A,]3- | [A,,A,]3 |!f! !^![^C,,^C,]3- | %98
 ([G,=B,]/[_A,!courtesy!=C]/[G,B,]/[^F,^A,]/[=F,=A,]/[^F,_A,]/) |[K:G] (G,/D,/G,,/D,/G,/D,/ | %100
 G,/ D,/ G,,/) (D,/ E,/ F,/ |{/A,} G,/F,/G,/A,/B,/C/) | D3/2 G,/ A,/ B,/ | G,/E,/G,,/E,/G,/E,/ | %104
 G,/D,/G,,/D,/G,/D,/ | G,/D,/G,,/D,/G,/D,/ | B,/C/B,/A,/G,/F,/ | E,/^D,/E,/G,/F,/E,/ | %108
 ^D,/^C,/B,,/ (=D,/E,/F,/) |{A,} G,/F,/G,/A,/B,/C/ | D>(G,A,/B,/ | G,,/E,/CD, | %112
 G,,/D,/B,([B,D]/[A,C]/) | .[G,B,]([G,B,])[D,A,]) | (B,/C/B,/A,/G,/F,/ | E,/^D,/E,/B,,/G,/F,/ | %116
 E,3/2) (E,/ =F,/ ^G,/ |{/B,} A,/^G,/A,/B,/C/D/ | E>(!courtesy!^F,)^G,/^A,/) | %119
{C} B,/^A,/B,/^C/D/E/ | B,,/F,/B,D, | G,,/D,/B,/D,/G,,/D,/ | G,,/D,/B,/D,/G,,/D,/ | %123
 G,,/E,/C/E,/G,,/E,/ | G,,/D,/B,(B,/C/ | D2 ^D) | E>FG/^G/ | A>!courtesy!=GF/E/ | x2 (B,/C/) | %129
 (D2 ^D) | E>FG/^G/ | [CEA]A/G/=F/E/ | [=F,A,C=F]F/E/[D,F,A,D]/^C/ |[K:F] [D,D]3 | DD,D | E,EE, | %136
 A,,A,[D,,D,] | [G,,G,]D[D,,D,] | [G,,G,]D[C,,C,] | [F,,F,][E,,E,][^D,,^D,] | %140
 [E,,E,]E,/!courtesy!=D,/^C,/=B,,/ | (A,,.[E,^C]).E,, | (A,,.[E,^C]).E,, | %143
 (^G,,.!courtesy!=F,).E,, | (A,,E,) z | A,,[E,^C]E,, | A,,[E,^C]A,, | B,,[F,D]B,, | A,,[E,^C] z | %149
 A,,F,!courtesy!=D | A,,E,^C | ^G,,F,D | A,,E,^C | (B,,.[!courtesy!=F,^G,D]).[_E,=G,^C] | %154
 (B,,.[!courtesy!=F,^G,D]).[_E,=G,^C] |!ff! ([!courtesy!_B,,!courtesy!_B,] z z | !^![_E,,_E,]3- | %157
 [E,,E,]3 |!p! !^!!courtesy!_B,/!courtesy!=A,/^G,/=G,/!courtesy!=F,/_E,/) || %159
 .D,/.!courtesy!=E,/.F,/G,/.A,/.A,,/ | .D,/.E,/.F,/.G,/!^!A, | %161
 [D,,A,,]/D,/[D,,A,,]/D,/[D,,A,,]/D,/ | [D,,A,,]/D,/[D,,A,,]/D,/[D,,A,,]/D,/ | %163
 [D,,A,,]/D,/[D,,A,,]/D,/[D,,A,,]/D,/ | [D,,A,,]/D,/[D,,A,,]/D,/[D,,A,,]/D,/ | %165
 A,,/A,/A,,/A,/A,,/A,/ | F,,/F,/F,,/F,/F,,/F,/ | B,/A,/B,/D/A,/C/ | B,/F,/D,/ x x/ | %169
 D,,/D,/D,,/D,/D,,/D,/ | D,,/D,/D,,/D,/D,,/D,/ | D,,/D,/D,,/D,/D,,/D,/ | D,,/D,/D,,/D,/B,,,/B,,/ | %173
 _E,,/_E,/E,,/E,/B,,,/B,,/ | _E,,/_E,/E,,/E,/C,,/C,/ | F,,/F,/A,,/A,/C,/C/ | %176
 .[A,,A,].[F,,F,] ([F,A,]/[E,G,]/) | .[D,F,]([D,F,][A,,E,]) | [D,,D,]2 (!^![C_E]/[B,D]/ | %179
 .[D,A,C])([D,A,C][D,G,B,] | [D,^F,A,]>)D,!courtesy!=E,/F,/ | .G,.D,,/(D,/!courtesy!=E,/^F,/) | %182
 .G,.D,,/D,/!courtesy!=E,/^F,/ | .[D,G,B,].[DG][^F,A,]/[G,B,]/ | %184
 [D,A,C][C!courtesy!=F][!courtesy!=E,G,]/[^F,A,]/ | (z _E2- | %186
 [D,G,B,E]2)[K:treble] ([^C=E]/[D!courtesy!=F]/) | [EG]/B/.^c [EG]/[FA]/ | %188
 [GB]/^c/.e ([GB]/[A=c]/ | [!courtesy!_B^c]3-) | [Bc]3/2 B/A/G/ | ^F/A,/D,/[K:treble] (B/A/G/) | %192
 ^F/A,/D,/[K:treble] B/A/G/ | ^F/A,/D,/ z/ .^C | !courtesy!=C.=B,._B, | .A,.^G,.=G, | %196
 .^F,.=F,.A,, | !fermata!D,,,3 |] %198
V:5
[K:F] x | x3 | x3 | x3 | x3 | x3 | x3 | x3 || x3 | x3 | x3 | x3 | x3 | x3 | x3 | x3 | x3 | x3 | %18
 x3 | x3 | x3 | x3 | x3 | x3 | x3 | x3 | x3 | x3 | x3 | x3 | x3 | x3 | x3 | x3 | x3 | x3 | x3 | %37
 x3 | x3 | x3 | x3 | x3 | x3 | x3 | x3 | x3 | x3 | x3 | x3 | x3 | x3 | x3 | x3 | x3 | x3 | x3 | %56
 x3 | x3 | x3 | x3 | x3 | x3 | x3 | x3 | x3 | x3 | x3 | x3 | x3 | x3 | x3 | x3 | x3 | x3 | x3 | %75
 x3 | x3 | x3 | x3 | x3 | x3 | x3 | x3 | x3 | x3 | x3 | x3 | x3 | x3 | x3 | x3 | x3 | x3 | x3 | %94
 x3 | x3 | x3 | x3 | [!courtesy!^C,,!courtesy!^C,]3 |[K:G] x2 x | x x/ x/ x | %101
 (G,/D,/G,,/D,/G,/D,/ | G,/D,/G,,/D,/G,/D,/) | x2 x | x2 x | x2 x | G,/D,/G,,/D,/G,/F,/ | %107
 [G,,B,,]3 | [B,,,B,,] z z | [G,,D,]2 D, | G,,/D,/B,D, | x2 x | x2 x | x2 x | [B,,G,]3 | %115
 .G,,.G,,.[B,,,B,,] | E,, z z | A,,/E,/A,/E,/A,,/E,/ | A,,/E,/A,F,, | B,,/F,/B,/F,/B,,/F,/ | x2 x | %121
 x2 x | x2 x | x2 x | x2 x | [G,B,]3 | [G,B,]3 | [G,CE]3 | [G,CDF]2 x | [G,B,]3 | [G,B,]3 | G,3 | %132
 x2 x |[K:F] x2 x | x2 x | x3 | x3 | x3 | x3 | x3 | x3 | x3 | x3 | x3 | x3 | x3 | x3 | x3 | x3 | %149
 x3 | x3 | x3 | x3 | x2 x | x2 x | x2 x | x2 x | x2 x | [!courtesy!=A,,,!courtesy!=A,,]3 || %159
 D,,,/D,,/D,,,/D,,/D,,,/D,,/ | D,,,/D,,/D,,,/D,,/D,,,/D,,/ | x2 x | x2 x | x2 x | x2 x | x2 x | %166
 x2 x | D,,/D,/D,,/D,/F,,/F,/ | D,,/D,/D,,/D,/D,,/D,/ | x2 x | x2 x | x2 x | x2 x | x2 x | x2 x | %175
 x2 x | x3/2 (A,/=B,/^C/) | x3 | x3 | x3 | x3 | x3 | x2 x | x2 x | x2 x | [D,G,B,]3 | %186
 x2[K:treble] x | x3 | x3 | x3 | x3 | x3/2[K:treble] x3/2 | x3/2[K:treble] x3/2 | x3 | x3 | x3 | %196
 x3 | x3 |] %198

